assets/logo-radar-relay.svg

<svg height="33" viewBox="0 0 200 33" width="200" xmlns="http://www.w3.org/2000/svg"><g fill="none" fill-rule="evenodd"><path d="m-10-34h220v100h-220z" fill="none"/><g fill="#5a5666"><path d="m3.92 8.38995181h8.8256c3.4708 0 6.2944 2.80499999 6.2944 6.25330119 0 2.3668554-1.3292 4.4295542-3.2868 5.4923133zm23.1 6.35508429c0-8.13072285-6.5208-14.7450361-14.5368-14.7450361h-12.4832v1.39196386l12.4832.01192771c7.252 0 13.152 5.9853253 13.152 13.34114453 0 4.3202169-2.0348 8.1673012-5.1836 10.6065181l-1.4832-1.5028915c2.78-2.0436145 4.592-5.3623013 4.592-9.1036266 0-6.19445779-4.9692-11.23431321-11.076-11.23431321l-12.4844.01113253v1.39315663h12.484c5.3436 0 9.6916 4.41046988 9.6916 9.83002405 0 3.3548675-1.664 6.322482-4.2008 8.0969278l-1.5004-1.5207832c2.1736-1.361747 3.6244-3.8001687 3.6244-6.5761446 0-4.2581927-3.4164-7.72319273-7.6144-7.72319273h-12.0804l13.6564 13.83853013c-.504.1331928-1.0316.2043614-1.5764.2043614h-12.484v1.4015061l12.484.0027831c.9428 0 1.8444-.1741446 2.6788-.4922169l1.578 1.5991085c-1.320862.6588812-2.7785377 1.0013274-4.2564.9999397l-12.4844-.0039759v1.4078675h12.484c1.8495346.0017054 3.6686806-.4675199 5.284-1.3629398l1.5208 1.5414579c-2.0429715 1.2616072-4.4004524 1.9295809-6.8056 1.9283132h-12.4832v1.3963374l12.4832.0079518c2.8728 0 5.554-.8504458 7.8104-2.3139759l4.3616 4.4188192-24.6552-.0071566v1.4114458h28l-6.5612-6.648506c3.396-2.7016265 5.5812-6.8993856 5.5812-11.6064579z"/><g fill-rule="nonzero" transform="translate(40 7)"><path d="m45.4237563 0h-2.7273096v1.48581818h2.7273096c2.4519797 0 4.0365483 1.58563637 4.0365483 4.03936364v6.33272728c0 2.4545454-1.5845686 4.0393636-4.0365483 4.0393636h-2.7273096v1.4858182h2.7273096c3.372995 0 5.639797-2.2622727 5.639797-5.6290909v-6.12490909c0-3.36681818-2.2659898-5.62909091-5.639797-5.62909091zm-5.2783756 17.3830909h1.6024366v-17.3830909h-1.6024366zm51.142335-12.24818181c0-3.07145454-2.3390863-5.13490909-5.8209137-5.13490909h-4.9673096v1.45963636h4.9153299c2.6014214 0 4.217665 1.40809091 4.217665 3.67445455 0 2.32772727-1.6560406 3.83154545-4.217665 3.83154545h-2.3553299v1.43345454h2.4073096c.2834518 0 .5685279-.0220909.8511675-.045l3.1788833 7.029h1.7591878l-3.3364467-7.40372726c2.1116751-.774 3.3681218-2.57481819 3.3681218-4.84527273zm-10.7882233 12.24818181h1.6040609v-14.95963635h-1.6040609zm-69.711269-12.24818181c0-3.07145454-2.33908634-5.13490909-5.82091376-5.13490909h-4.96730964v1.45963636h4.91532995c2.60142132 0 4.21685279 1.40809091 4.21685279 3.67445455 0 2.32772727-1.65522843 3.83154545-4.21685279 3.83154545h-2.3577665v1.43345454h2.40974619c.2826396 0 .56771574-.0220909.85116752-.045l3.17888325 7.029h1.75918779l-3.33644668-7.40372726c2.11167513-.774 3.36812188-2.57481819 3.36812188-4.84527273zm-10.7882234 12.24736361h1.60406091v-14.95881815h-1.60406091v14.95963635zm64.6789848-17.3822727-5.7258884 17.3830909h1.6186802l5.6471066-17.3830909zm1.1987817 4.09172727 2.4406091 7.45363633h-4.8308629l-.471066 1.4858182h5.7754315l1.4229441 4.3527273h1.6966498l-5.2255838-15.76554546zm-40.3524873 0 2.4406091 7.45363633h-4.8308629l-.471066 1.4858182h5.7746193l1.4237563 4.3527273h1.6958376l-5.2247716-15.76554546zm.3411167-4.09090909-5.6479187 17.38227272h-1.6178681l5.724264-17.3830909h1.5398985z"/><path d="m159.909036 3.35945455-3.351066 6.45381818v4.45090907c0 .1112727-.055229.1660909-.164874.1660909h-.607512c-.109645 0-.164061-.0548182-.164061-.1652727v-4.45090909l-3.351066-6.45463636c-.022528-.03928972-.019322-.08838584.008122-.12436364.026802-.03845455.068223-.05727273.122639-.05727273h.641625c.108832 0 .190863.05563637.246091.16527273l2.808528 5.37790909h.049543l2.759797-5.37790909c.054416-.10963636.136447-.16527273.246091-.16527273h.624569c.064975 0 .108832.01881818.131574.05727273.021886.03852293.021886.08584071 0 .12436364zm-18.119797 7.23190905 2.103553-5.89090905h.048731l2.086497 5.89090905zm2.629035-7.24827269c-.032487-.10963636-.099086-.16527273-.19736-.16527273h-.591269c-.099087 0-.164873.05563637-.197361.16527273l-3.909847 10.92190909c-.032488.1104545.005685.1652727.115329.1652727h.640813c.098274 0 .169746-.0548182.212792-.1652727l.985989-2.7638182h4.862538l.985178 2.7638182c.021929.1104545.093401.1652727.214416.1652727h.64c.109645 0 .14863-.0548182.11533-.1652727zm-9.790863 10.35899999v.5629091c0 .1104545-.054416.1652727-.164061.1652727h-6.390254c-.109644 0-.16406-.0548182-.16406-.1652727v-10.92190909c0-.10963636.054416-.16527273.16406-.16527273h.607513c.109645 0 .164873.05563637.164873.16527273v10.09472729c0 .0654545.032488.0981818.097462.0981818h5.520406c.109645 0 .164061.0556364.164061.1660909zm-13.076142-10.35818181v.56209091c0 .11045455-.054416.16527273-.164061.16527273h-5.519594c-.064974 0-.098274.03272727-.098274.099v4.005c0 .06545454.032487.099.098274.099h4.747208c.109645 0 .164873.05563636.164873.16609091v.56209091c0 .11045454-.055228.1660909-.164873.1660909h-4.747208c-.064974 0-.098274.03272728-.098274.09818182v4.17109093c0 .0654545.032487.0981818.098274.0981818h5.519594c.109645 0 .164061.0556364.164061.1660909v.5629091c0 .1104545-.054416.1652727-.164061.1652727h-6.390254c-.109644 0-.164061-.0548182-.164061-.1652727v-10.92190909c0-.10963636.054417-.16527273.164061-.16527273h6.390254c.109645 0 .164061.05563637.164061.16527273zm-16.869848 5.16272727h-2.858883c-.064975 0-.097462-.03354545-.097462-.09981818v-4.23654545c0-.06545455.032487-.099.097462-.099h2.858883c.799188 0 1.412386.19309091 1.839594.57927272.427208.38618182.640812.93272728.640812 1.638 0 .71754546-.213604 1.26654546-.641624 1.647-.426396.38045455-1.039594.57027273-1.838782.57027273zm1.132995.76090909c.722843-.17672727 1.284061-.522 1.683655-1.03418181.399594-.513.600203-1.16181819.600203-1.94481819 0-.97036363-.30132-1.73127272-.903959-2.28272727-.60264-.55227273-1.434315-.828-2.49665-.828h-3.745787c-.109644 0-.164061.05563637-.164061.16527273v10.92190909c0 .1104545.054417.1652727.164061.1652727h.608325c.108833 0 .164061-.0548182.164061-.1652727v-4.76590909c0-.06545455.032487-.099.098274-.099h3.039188l2.348832 4.88127269c.043858.099.109645.1489091.197361.1489091h.75533c.055228 0 .090152-.0163636.107208-.0490909.016244-.0335454.008122-.0777273-.024366-.1325454z"/></g></g></g></svg>

<?xml version="1.0" encoding="UTF-8"?>
<svg width="200px" height="33px" viewBox="0 0 200 33" version="1.1" xmlns="http://www.w3.org/2000/svg" xmlns:xlink="http://www.w3.org/1999/xlink">
    <!-- Generator: Sketch 52.2 (67145) - http://www.bohemiancoding.com/sketch -->
    <title>Logo Radar Relay</title>
    <desc>Created with Sketch.</desc>
    <g id="Designs" stroke="none" stroke-width="1" fill="none" fill-rule="evenodd">
        <g id="Home" transform="translate(-1100.000000, -1299.000000)">
            <g id="JOIN-THE-WBTC-COMMUNITY" transform="translate(-30.000000, 734.000000)">
                <g id="SECTION---JOIN-THE-WBTC-COMMUNITY" transform="translate(160.000000, 175.000000)">
                    <g id="Logo-Radar-Relay" transform="translate(960.000000, 356.000000)">
                        <rect id="Area" fill-opacity="0" fill="#D0021B" fill-rule="nonzero" x="0" y="0" width="220" height="100"></rect>
                        <g id="Group-8" transform="translate(10.000000, 34.000000)" fill="#5A5666">
                            <path d="M3.92,8.38995181 L12.7456,8.38995181 C16.2164,8.38995181 19.04,11.1949518 19.04,14.643253 C19.04,17.0101084 17.7108,19.0728072 15.7532,20.1355663 L3.92,8.38995181 Z M27.02,14.7450361 C27.02,6.61431325 20.4992,0 12.4832,0 L0,0 L0,1.39196386 L12.4832,1.40389157 C19.7352,1.40389157 25.6352,7.38921687 25.6352,14.7450361 C25.6352,19.065253 23.6004,22.9123373 20.4516,25.3515542 L18.9684,23.8486627 C21.7484,21.8050482 23.5604,18.4863614 23.5604,14.7450361 C23.5604,8.55057831 18.5912,3.51072289 12.4844,3.51072289 L0,3.52185542 L0,4.91501205 L12.484,4.91501205 C17.8276,4.91501205 22.1756,9.32548193 22.1756,14.7450361 C22.1756,18.0999036 20.5116,21.0675181 17.9748,22.8419639 L16.4744,21.3211807 C18.648,19.9594337 20.0988,17.521012 20.0988,14.7450361 C20.0988,10.4868434 16.6824,7.02184337 12.4844,7.02184337 L0.404,7.02184337 L14.0604,20.8603735 C13.5564,20.9935663 13.0288,21.0647349 12.484,21.0647349 L0,21.0647349 L0,22.466241 L12.484,22.4690241 C13.4268,22.4690241 14.3284,22.2948795 15.1628,21.9768072 L16.7408,23.5759157 C15.419938,24.2347969 13.9622623,24.5772431 12.4844,24.5758554 L0,24.5718795 L0,25.979747 L12.484,25.979747 C14.3335346,25.9814524 16.1526806,25.5122271 17.768,24.6168072 L19.2888,26.1582651 C17.2458285,27.4198723 14.8883476,28.087846 12.4832,28.0865783 L0,28.0865783 L0,29.4829157 L12.4832,29.4908675 C15.356,29.4908675 18.0372,28.6404217 20.2936,27.1768916 L24.6552,31.5957108 L0,31.5885542 L0,33 L28,33 L21.4388,26.351494 C24.8348,23.6498675 27.02,19.4521084 27.02,14.7450361 Z" id="Shape"></path>
                            <g id="radar-relay-logo" transform="translate(40.000000, 7.000000)" fill-rule="nonzero">
                                <path d="M45.4237563,0 L42.6964467,0 L42.6964467,1.48581818 L45.4237563,1.48581818 C47.875736,1.48581818 49.4603046,3.07145455 49.4603046,5.52518182 L49.4603046,11.8579091 C49.4603046,14.3124545 47.875736,15.8972727 45.4237563,15.8972727 L42.6964467,15.8972727 L42.6964467,17.3830909 L45.4237563,17.3830909 C48.7967513,17.3830909 51.0635533,15.1208182 51.0635533,11.754 L51.0635533,5.62909091 C51.0635533,2.26227273 48.7975635,0 45.4237563,0 Z M40.1453807,17.3830909 L41.7478173,17.3830909 L41.7478173,0 L40.1453807,0 L40.1453807,17.3830909 Z M91.2877157,5.13490909 C91.2877157,2.06345455 88.9486294,-3.55271368e-15 85.466802,-3.55271368e-15 L80.4994924,-3.55271368e-15 L80.4994924,1.45963636 L85.4148223,1.45963636 C88.0162437,1.45963636 89.6324873,2.86772727 89.6324873,5.13409091 C89.6324873,7.46181818 87.9764467,8.96563636 85.4148223,8.96563636 L83.0594924,8.96563636 L83.0594924,10.3990909 L85.466802,10.3990909 C85.7502538,10.3990909 86.0353299,10.377 86.3179695,10.3540909 L89.4968528,17.3830909 L91.2560406,17.3830909 L87.9195939,9.97936364 C90.031269,9.20536364 91.2877157,7.40454545 91.2877157,5.13409091 L91.2877157,5.13490909 Z M80.4994924,17.3830909 L82.1035533,17.3830909 L82.1035533,2.42345455 L80.4994924,2.42345455 L80.4994924,17.3830909 Z M10.7882234,5.13490909 C10.7882234,2.06345455 8.44913706,-3.55271368e-15 4.96730964,-3.55271368e-15 L0,-3.55271368e-15 L0,1.45963636 L4.91532995,1.45963636 C7.51675127,1.45963636 9.13218274,2.86772727 9.13218274,5.13409091 C9.13218274,7.46181818 7.47695431,8.96563636 4.91532995,8.96563636 L2.55756345,8.96563636 L2.55756345,10.3990909 L4.96730964,10.3990909 C5.24994924,10.3990909 5.53502538,10.377 5.81847716,10.3540909 L8.99736041,17.3830909 L10.7565482,17.3830909 L7.42010152,9.97936364 C9.53177665,9.20536364 10.7882234,7.40454545 10.7882234,5.13409091 L10.7882234,5.13490909 Z M0,17.3822727 L1.60406091,17.3822727 L1.60406091,2.42345455 L0,2.42345455 L0,17.3830909 L0,17.3822727 Z M64.6789848,0 L58.9530964,17.3830909 L60.5717766,17.3830909 L66.2188832,0 L64.6789848,0 Z M65.8777665,4.09172727 L68.3183756,11.5453636 L63.4875127,11.5453636 L63.0164467,13.0311818 L68.7918782,13.0311818 L70.2148223,17.3839091 L71.9114721,17.3839091 L66.6858883,1.61836364 L65.8777665,4.09172727 Z M25.5252792,4.09172727 L27.9658883,11.5453636 L23.1350254,11.5453636 L22.6639594,13.0311818 L28.4385787,13.0311818 L29.862335,17.3839091 L31.5581726,17.3839091 L26.333401,1.61836364 L25.5252792,4.09172727 Z M25.8663959,0.000818181818 L20.2184772,17.3830909 L18.6006091,17.3830909 L24.3248731,0 L25.8647716,0 L25.8663959,0.000818181818 Z" id="Shape"></path>
                                <path d="M159.909036,3.35945455 L156.55797,9.81327273 L156.55797,14.2641818 C156.55797,14.3754545 156.502741,14.4302727 156.393096,14.4302727 L155.785584,14.4302727 C155.675939,14.4302727 155.621523,14.3754545 155.621523,14.265 L155.621523,9.81409091 L152.270457,3.35945455 C152.247929,3.32016483 152.251135,3.27106871 152.278579,3.23509091 C152.305381,3.19663636 152.346802,3.17781818 152.401218,3.17781818 L153.042843,3.17781818 C153.151675,3.17781818 153.233706,3.23345455 153.288934,3.34309091 L156.097462,8.721 L156.147005,8.721 L158.906802,3.34309091 C158.961218,3.23345455 159.043249,3.17781818 159.152893,3.17781818 L159.777462,3.17781818 C159.842437,3.17781818 159.886294,3.19663636 159.909036,3.23509091 C159.930922,3.27361384 159.930922,3.32093162 159.909036,3.35945455 Z M141.789239,10.5913636 L143.892792,4.70045455 L143.941523,4.70045455 L146.02802,10.5913636 L141.789239,10.5913636 Z M144.418274,3.34309091 C144.385787,3.23345455 144.319188,3.17781818 144.220914,3.17781818 L143.629645,3.17781818 C143.530558,3.17781818 143.464772,3.23345455 143.432284,3.34309091 L139.522437,14.265 C139.489949,14.3754545 139.528122,14.4302727 139.637766,14.4302727 L140.278579,14.4302727 C140.376853,14.4302727 140.448325,14.3754545 140.491371,14.265 L141.47736,11.5011818 L146.339898,11.5011818 L147.325076,14.265 C147.347005,14.3754545 147.418477,14.4302727 147.539492,14.4302727 L148.179492,14.4302727 C148.289137,14.4302727 148.328122,14.3754545 148.294822,14.265 L144.418274,3.34309091 Z M134.627411,13.7020909 L134.627411,14.265 C134.627411,14.3754545 134.572995,14.4302727 134.46335,14.4302727 L128.073096,14.4302727 C127.963452,14.4302727 127.909036,14.3754545 127.909036,14.265 L127.909036,3.34309091 C127.909036,3.23345455 127.963452,3.17781818 128.073096,3.17781818 L128.680609,3.17781818 C128.790254,3.17781818 128.845482,3.23345455 128.845482,3.34309091 L128.845482,13.4378182 C128.845482,13.5032727 128.87797,13.536 128.942944,13.536 L134.46335,13.536 C134.572995,13.536 134.627411,13.5916364 134.627411,13.7020909 Z M121.551269,3.34390909 L121.551269,3.906 C121.551269,4.01645455 121.496853,4.07127273 121.387208,4.07127273 L115.867614,4.07127273 C115.80264,4.07127273 115.76934,4.104 115.76934,4.17027273 L115.76934,8.17527273 C115.76934,8.24072727 115.801827,8.27427273 115.867614,8.27427273 L120.614822,8.27427273 C120.724467,8.27427273 120.779695,8.32990909 120.779695,8.44036364 L120.779695,9.00245455 C120.779695,9.11290909 120.724467,9.16854545 120.614822,9.16854545 L115.867614,9.16854545 C115.80264,9.16854545 115.76934,9.20127273 115.76934,9.26672727 L115.76934,13.4378182 C115.76934,13.5032727 115.801827,13.536 115.867614,13.536 L121.387208,13.536 C121.496853,13.536 121.551269,13.5916364 121.551269,13.7020909 L121.551269,14.265 C121.551269,14.3754545 121.496853,14.4302727 121.387208,14.4302727 L114.996954,14.4302727 C114.88731,14.4302727 114.832893,14.3754545 114.832893,14.265 L114.832893,3.34309091 C114.832893,3.23345455 114.88731,3.17781818 114.996954,3.17781818 L121.387208,3.17781818 C121.496853,3.17781818 121.551269,3.23345455 121.551269,3.34309091 L121.551269,3.34390909 Z M104.681421,8.50663636 L101.822538,8.50663636 C101.757563,8.50663636 101.725076,8.47309091 101.725076,8.40681818 L101.725076,4.17027273 C101.725076,4.10481818 101.757563,4.07127273 101.822538,4.07127273 L104.681421,4.07127273 C105.480609,4.07127273 106.093807,4.26436364 106.521015,4.65054545 C106.948223,5.03672727 107.161827,5.58327273 107.161827,6.28854545 C107.161827,7.00609091 106.948223,7.55509091 106.520203,7.93554545 C106.093807,8.316 105.480609,8.50581818 104.681421,8.50581818 L104.681421,8.50663636 Z M105.814416,9.26754545 C106.537259,9.09081818 107.098477,8.74554545 107.498071,8.23336364 C107.897665,7.72036364 108.098274,7.07154545 108.098274,6.28854545 C108.098274,5.31818182 107.796954,4.55727273 107.194315,4.00581818 C106.591675,3.45354545 105.76,3.17781818 104.697665,3.17781818 L100.951878,3.17781818 C100.842234,3.17781818 100.787817,3.23345455 100.787817,3.34309091 L100.787817,14.265 C100.787817,14.3754545 100.842234,14.4302727 100.951878,14.4302727 L101.560203,14.4302727 C101.669036,14.4302727 101.724264,14.3754545 101.724264,14.265 L101.724264,9.49909091 C101.724264,9.43363636 101.756751,9.40009091 101.822538,9.40009091 L104.861726,9.40009091 L107.210558,14.2813636 C107.254416,14.3803636 107.320203,14.4302727 107.407919,14.4302727 L108.163249,14.4302727 C108.218477,14.4302727 108.253401,14.4139091 108.270457,14.3811818 C108.286701,14.3476364 108.278579,14.3034545 108.246091,14.2486364 L105.814416,9.26754545 Z" id="Shape"></path>
                            </g>
                        </g>
                    </g>
                </g>
            </g>
        </g>
    </g>
</svg>
